X: 15
I: linebreak $
T: Chestnut
T: longways for three couples
P: AA BB x 3
C: 
K: A minor
M: 2/2
L: 1/4
P: A
 |: "Am"Ae "Dm"d"Am"c | "Bdim"B3/A/ "E"^GE | "Am"AB cc | "Dm"dc/d/ "Em"e2 :: 
P: B
"C"ee/f/ gf/e/ | "G"dd/e/ fe/d/ | 
"Am"ee ed/c/ | "Dm"d"Em"e "C"c2 | "Am"ef/e/ f/e/d/c/ | "G"de/d/ e/d/c/B/ | "Am"c"Dm"A "Am"A"Dm"d | "Em"B2 "Am"A2 :| 


